X: 7297
T: Clearwater, The
R: reel
M: 4/4
K: Cmajor
|:d3B AGEG|DG G2EA-AG|d3B EGDG|BAGE- EG-GE|
D3E BABd|D2BG AGEG|G2BA Bd-dB|A2dG AGBG:|
|:d3e geag|e2ag edBd|e3d edag|edBA BGEG|
d3e geag|ea2g edBd|bage-ea-ag|eged edBA:|

